X:1
T:Title
%%score ( 1 2 ) ( 3 4 )
L:1/8
Q:1/4=75
M:6/8
K:A
V:1 treble nm="Strings 1, Treble"
V:2 treble 
V:3 bass nm="Strings 1, Bass"
V:4 bass 
V:1
 z3 z2 [CE] | [CA]2 [CA] [CA]2 [CE] | [DF]2 [CE] [CE][B,D][A,C] | [Ec]2 [Ec] [DB]2 [DB] | %4
w: 1.~The~|prom ise~ true,~ which~|God~ hath~ spo ken,~ Can~|nev er~ pass~ a|
 [CA]3- [CA]2 [CE] | [DF]2 [FA] [FA]2 [FB] | [EA]2 [DF] [DF][CE][A,C] | [CE]2 [EA] [EA]2 [DG] | %8
w: way,~ * But~|al ways~ will~ a|bide~ un bro ken,~ Just~|as~ it~ is~ to|
 [CA]3- [CA]2 [CE] | [CA]2 [EA] [EA]2 E | [Ac]2 [Ac] [Ac]2 [EA] | [Ee]2 [Ee] ec[EA] | %12
w: day.~ * *||||
 [EB]2 [Ec] [EB]2 [DE] | [CA]2 [EA] [Ac]2 [EA] | [FA][EG][DF] [Fd]2[Q:1/4=75] [DF][Q:1/4=12] | %15
w: |||
 [CE]2 [CA] [EA]2 [EB] | [EA]2 [EG] .[EA]3[Q:1/4=12][Q:1/4=75] |] %17
w: ||
V:2
 x6 | x6 | x6 | x6 | x6 | x6 | x6 | x6 | x6 | x6 | x6 | z3 .E3 | x6 | x6 | x6 | x6 | x6 |] %17
V:3
 z3 z2 [A,,A,] | [A,,E,]2 [A,,E,] [A,,E,]2 [A,,A,] | [A,,A,]2 [A,,A,] [A,,A,][A,,E,][A,,E,] | %3
 [A,,A,]2 [A,,A,] [E,G,]2 [E,G,] | [A,,A,]3- [A,,A,]2 [A,,A,] | [D,A,]2 [D,A,] [D,D]2 [D,D] | %6
 [A,,C]2 [A,,A,] [A,,A,][A,,A,][A,,E,] | [A,,A,]2 [C,A,] [E,C]2 [E,B,] | %8
 [A,,A,]3- [A,,A,]2 [A,,A,] | [A,,A,]2 [A,,C] [A,,C]2 [A,C] | [A,E]2 [A,E] [A,E]2 [A,C] | %11
 [A,C]2 [A,C] [A,C]A,[C,A,] | [E,G,]2 [E,A,] [E,G,]2 [E,G,] | [A,,A,]2 [A,,C] [A,,E]2 [A,,C] | %14
 .D3 z3 | [E,A,]2 [E,A,] [E,C]2 [E,D] | [E,C]2 [E,B,] .[A,,C]3 |] %17
V:4
 x6 | x6 | x6 | x6 | x6 | x6 | x6 | x6 | x6 | x6 | x6 | x6 | x6 | x6 | %14
 D,-[D,A,][D,A,] [D,A,]2 [D,A,] | x6 | x6 |] %17

